X: 24657
T: MacGregor Of Rora
R: waltz
M: 3/4
K: Amixolydian
A>B e2 e2|ed e2 A2|A>B e2 g2|f<a d2 G2|
dB d2 e>d|BA AG g>f|e>d B<d G2|A2 B2 A2:|
|:A>B e2 a2|ge ed BA|A>B e2 a2|g/>f/e/>d/ g2 G2|
dB d2 e>d|BA AG g>f|e>d B<d G2|A2 B2 A2:|

